X: 20993
Q: "With spirit."
M: 2/4
L: 1/8
K: D
a |\
fdec | dBAG | FGAF | FE za |\
fdec dBAG | FdDc | dDD :|\
|: A/G/ |\
fdec | dBAG | FdEc | dDD :|


